build/assets/images/proyectos/logos/fichas/logo-fundacion-juanmarch.svg

<svg width="251" height="41" viewBox="0 0 251 41" fill="none" xmlns="http://www.w3.org/2000/svg">
<path d="M10.3194 20.6567V22.1881H6.61195V27.5075H5V16.2239H11.4478V17.7552H6.61195V20.6567H10.3194Z" fill="white"/>
<path d="M19.7455 27.6687C19.047 27.6687 18.3969 27.5398 17.7951 27.2818C17.1933 27.0132 16.6775 26.6478 16.2476 26.1857C15.8822 25.7881 15.5921 25.3206 15.3772 24.7833C15.173 24.246 15.0709 23.5959 15.0709 22.8329V16.2239H16.6828V22.9135C16.6828 23.4508 16.7419 23.8968 16.8602 24.2514C16.9891 24.5953 17.1664 24.8908 17.3921 25.138C17.6715 25.4496 18.01 25.6968 18.4076 25.8795C18.816 26.0514 19.262 26.1374 19.7455 26.1374C20.2291 26.1374 20.6697 26.0514 21.0673 25.8795C21.4757 25.6968 21.8196 25.4496 22.099 25.138C22.3247 24.8908 22.4966 24.5953 22.6148 24.2514C22.7438 23.8968 22.8082 23.4508 22.8082 22.9135V16.2239H24.4202V22.8329C24.4202 23.5959 24.3127 24.246 24.0978 24.7833C23.8936 25.3206 23.6088 25.7881 23.2435 26.1857C22.8136 26.6478 22.2978 27.0132 21.696 27.2818C21.0942 27.5398 20.444 27.6687 19.7455 27.6687Z" fill="white"/>
<path d="M30.7912 19.2221V27.5075H29.1792V16.2239H30.3076L37.0777 24.5093V16.2239H38.6897V27.5075H37.5613L30.7912 19.2221Z" fill="white"/>
<path d="M51.4971 21.8657C51.4971 21.2317 51.3735 20.6406 51.1264 20.0926C50.8899 19.5445 50.5568 19.0824 50.127 18.7063C49.7723 18.3946 49.3425 18.1582 48.8374 17.997C48.3431 17.8358 47.6983 17.7552 46.9031 17.7552H45.2105V25.9762H46.9031C47.6983 25.9762 48.3431 25.8956 48.8374 25.7344C49.3425 25.5732 49.7723 25.3368 50.127 25.0251C50.5568 24.649 50.8899 24.1869 51.1264 23.6388C51.3735 23.0908 51.4971 22.4997 51.4971 21.8657ZM43.5986 27.5075V16.2239H46.9837C47.8864 16.2239 48.6386 16.3152 49.2404 16.4979C49.8529 16.6806 50.3902 16.9439 50.8523 17.2878C51.5508 17.8036 52.0989 18.4591 52.4965 19.2544C52.9049 20.0496 53.1091 20.92 53.1091 21.8657C53.1091 22.8114 52.9103 23.6818 52.5126 24.4771C52.115 25.2723 51.567 25.9278 50.8685 26.4436C50.4064 26.7875 49.869 27.0508 49.2565 27.2335C48.644 27.4162 47.8864 27.5075 46.9837 27.5075H43.5986Z" fill="white"/>
<path d="M63.3746 24.606H58.6194L57.4427 27.5075H55.7663L60.4409 16.2239H61.5693L66.2439 27.5075H64.5675L63.3746 24.606ZM59.2642 23.0747H62.746L61.0051 18.8836L59.2642 23.0747Z" fill="white"/>
<path d="M68.9061 21.8657C68.9061 21.049 69.0512 20.2914 69.3414 19.5929C69.6315 18.8836 70.0291 18.2711 70.5342 17.7552C71.05 17.2287 71.6518 16.8149 72.3396 16.514C73.0381 16.2131 73.7957 16.0627 74.6124 16.0627C75.4184 16.0627 76.1814 16.2185 76.9014 16.5302C77.6321 16.8311 78.2447 17.2555 78.739 17.8036L77.659 18.8675C77.3259 18.5021 76.8853 18.2012 76.3372 17.9648C75.7999 17.7176 75.225 17.594 74.6124 17.594C74.0321 17.594 73.4948 17.7015 73.0005 17.9164C72.5062 18.1314 72.0709 18.4323 71.6948 18.8191C71.3294 19.1952 71.0393 19.6466 70.8243 20.1732C70.6202 20.689 70.5181 21.2532 70.5181 21.8657C70.5181 22.4997 70.6255 23.08 70.8405 23.6066C71.0554 24.1332 71.3509 24.5845 71.727 24.9606C72.1139 25.3368 72.5653 25.6269 73.0811 25.8311C73.5969 26.0353 74.1557 26.1374 74.7575 26.1374C75.1336 26.1374 75.4829 26.089 75.8053 25.9923C76.1384 25.8956 76.4393 25.772 76.708 25.6215C76.9766 25.4711 77.2184 25.3045 77.4333 25.1218C77.6483 24.9284 77.8363 24.735 77.9975 24.5415L79.142 25.5732C78.8948 25.8848 78.6101 26.1696 78.2877 26.4275C77.9653 26.6854 77.616 26.9057 77.2399 27.0884C76.8638 27.2711 76.4608 27.4108 76.0309 27.5075C75.6118 27.615 75.1874 27.6687 74.7575 27.6687C73.9193 27.6687 73.1402 27.5236 72.4202 27.2335C71.7109 26.9433 71.093 26.5404 70.5664 26.0245C70.0506 25.5087 69.6423 24.8962 69.3414 24.1869C69.0512 23.4777 68.9061 22.7039 68.9061 21.8657Z" fill="white"/>
<path d="M82.937 16.2239H84.5489V27.5075H82.937V16.2239Z" fill="white"/>
<path d="M88.5832 21.8657C88.5832 21.049 88.7283 20.286 89.0184 19.5767C89.3086 18.8675 89.7062 18.2549 90.2113 17.7391C90.7164 17.2126 91.3128 16.8042 92.0006 16.514C92.6883 16.2131 93.4298 16.0627 94.225 16.0627C95.0203 16.0627 95.7618 16.2131 96.4495 16.514C97.1373 16.8042 97.7337 17.2126 98.2388 17.7391C98.7439 18.2549 99.1415 18.8675 99.4316 19.5767C99.7218 20.286 99.8669 21.049 99.8669 21.8657C99.8669 22.6932 99.7218 23.4615 99.4316 24.1708C99.1415 24.8693 98.7439 25.4818 98.2388 26.0084C97.7337 26.5242 97.1373 26.9326 96.4495 27.2335C95.7618 27.5236 95.0203 27.6687 94.225 27.6687C93.4298 27.6687 92.6883 27.5236 92.0006 27.2335C91.3128 26.9326 90.7164 26.5242 90.2113 26.0084C89.7062 25.4818 89.3086 24.8693 89.0184 24.1708C88.7283 23.4615 88.5832 22.6932 88.5832 21.8657ZM90.1952 21.8657C90.1952 22.4782 90.2973 23.0478 90.5014 23.5744C90.7056 24.0902 90.985 24.5415 91.3396 24.9284C91.705 25.3045 92.1295 25.6001 92.6131 25.815C93.1074 26.0299 93.6447 26.1374 94.225 26.1374C94.8053 26.1374 95.3373 26.0299 95.8209 25.815C96.3152 25.6001 96.7397 25.3045 97.0943 24.9284C97.4597 24.5415 97.7445 24.0902 97.9486 23.5744C98.1528 23.0478 98.2549 22.4782 98.2549 21.8657C98.2549 21.2532 98.1528 20.689 97.9486 20.1732C97.7445 19.6466 97.4597 19.1952 97.0943 18.8191C96.7397 18.4323 96.3152 18.1314 95.8209 17.9164C95.3373 17.7015 94.8053 17.594 94.225 17.594C93.6447 17.594 93.1074 17.7015 92.6131 17.9164C92.1295 18.1314 91.705 18.4323 91.3396 18.8191C90.985 19.1952 90.7056 19.6466 90.5014 20.1732C90.2973 20.689 90.1952 21.2532 90.1952 21.8657ZM93.6609 15.4179L94.7086 13H96.4012L94.7086 15.4179H93.6609Z" fill="white"/>
<path d="M105.501 19.2221V27.5075H103.889V16.2239H105.018L111.788 24.5093V16.2239H113.4V27.5075H112.271L105.501 19.2221Z" fill="white"/>
<path d="M124.652 25.2347C124.781 25.5141 124.974 25.7344 125.232 25.8956C125.501 26.0568 125.807 26.1374 126.151 26.1374C126.398 26.1374 126.635 26.0783 126.86 25.9601C127.097 25.8418 127.285 25.6914 127.425 25.5087C127.521 25.3798 127.597 25.2239 127.65 25.0412C127.704 24.8478 127.731 24.5792 127.731 24.2353V16.2239H129.343V24.1224C129.343 24.5738 129.311 24.9499 129.246 25.2508C129.182 25.5409 129.085 25.8042 128.956 26.0407C128.677 26.5242 128.29 26.9165 127.795 27.2174C127.301 27.5183 126.753 27.6687 126.151 27.6687C125.496 27.6687 124.905 27.5129 124.378 27.2013C123.851 26.8789 123.465 26.4275 123.217 25.8472L124.652 25.2347Z" fill="white"/>
<path d="M138.611 27.6687C137.912 27.6687 137.262 27.5398 136.66 27.2818C136.059 27.0132 135.543 26.6478 135.113 26.1857C134.748 25.7881 134.457 25.3206 134.242 24.7833C134.038 24.246 133.936 23.5959 133.936 22.8329V16.2239H135.548V22.9135C135.548 23.4508 135.607 23.8968 135.725 24.2514C135.854 24.5953 136.032 24.8908 136.257 25.138C136.537 25.4496 136.875 25.6968 137.273 25.8795C137.681 26.0514 138.127 26.1374 138.611 26.1374C139.094 26.1374 139.535 26.0514 139.933 25.8795C140.341 25.6968 140.685 25.4496 140.964 25.138C141.19 24.8908 141.362 24.5953 141.48 24.2514C141.609 23.8968 141.674 23.4508 141.674 22.9135V16.2239H143.286V22.8329C143.286 23.5959 143.178 24.246 142.963 24.7833C142.759 25.3206 142.474 25.7881 142.109 26.1857C141.679 26.6478 141.163 27.0132 140.561 27.2818C139.96 27.5398 139.309 27.6687 138.611 27.6687Z" fill="white"/>
<path d="M154.283 24.606H149.528L148.351 27.5075H146.674L151.349 16.2239H152.477L157.152 27.5075H155.476L154.283 24.606ZM150.172 23.0747H153.654L151.913 18.8836L150.172 23.0747Z" fill="white"/>
<path d="M162.313 19.2221V27.5075H160.701V16.2239H161.829L168.599 24.5093V16.2239H170.211V27.5075H169.083L162.313 19.2221Z" fill="white"/>
<path d="M187.525 25.0896H186.396L183.092 19.9153V27.5075H181.48V16.2239H182.608L186.96 23.1069L191.313 16.2239H192.441V27.5075H190.829V19.9153L187.525 25.0896Z" fill="white"/>
<path d="M203.601 24.606H198.846L197.669 27.5075H195.993L200.668 16.2239H201.796L206.471 27.5075H204.794L203.601 24.606ZM199.491 23.0747H202.973L201.232 18.8836L199.491 23.0747Z" fill="white"/>
<path d="M211.631 22.1881V27.5075H210.019V16.2239H213.969C214.485 16.2239 214.914 16.283 215.258 16.4012C215.602 16.5087 215.903 16.6699 216.161 16.8848C216.505 17.1642 216.774 17.5027 216.967 17.9003C217.171 18.2979 217.273 18.7332 217.273 19.206C217.273 19.6788 217.171 20.1141 216.967 20.5117C216.774 20.9093 216.505 21.2478 216.161 21.5272C215.978 21.6776 215.78 21.8012 215.565 21.8979C215.36 21.9947 215.119 22.0699 214.839 22.1236L218.885 27.5075H216.935L212.921 22.1881H211.631ZM213.888 20.6567C214.254 20.6567 214.538 20.6191 214.743 20.5439C214.947 20.4687 215.113 20.3666 215.242 20.2376C215.522 19.9582 215.661 19.6144 215.661 19.206C215.661 19.0018 215.624 18.8138 215.548 18.6418C215.473 18.4591 215.371 18.3033 215.242 18.1743C215.113 18.0454 214.947 17.9433 214.743 17.8681C214.538 17.7929 214.254 17.7552 213.888 17.7552H211.631V20.6567H213.888Z" fill="white"/>
<path d="M221.459 21.8657C221.459 21.049 221.604 20.2914 221.894 19.5929C222.184 18.8836 222.582 18.2711 223.087 17.7552C223.603 17.2287 224.204 16.8149 224.892 16.514C225.591 16.2131 226.348 16.0627 227.165 16.0627C227.971 16.0627 228.734 16.2185 229.454 16.5302C230.185 16.8311 230.797 17.2555 231.292 17.8036L230.212 18.8675C229.878 18.5021 229.438 18.2012 228.89 17.9648C228.352 17.7176 227.777 17.594 227.165 17.594C226.585 17.594 226.047 17.7015 225.553 17.9164C225.059 18.1314 224.623 18.4323 224.247 18.8191C223.882 19.1952 223.592 19.6466 223.377 20.1732C223.173 20.689 223.071 21.2532 223.071 21.8657C223.071 22.4997 223.178 23.08 223.393 23.6066C223.608 24.1332 223.903 24.5845 224.28 24.9606C224.666 25.3368 225.118 25.6269 225.634 25.8311C226.149 26.0353 226.708 26.1374 227.31 26.1374C227.686 26.1374 228.035 26.089 228.358 25.9923C228.691 25.8956 228.992 25.772 229.26 25.6215C229.529 25.4711 229.771 25.3045 229.986 25.1218C230.201 24.9284 230.389 24.735 230.55 24.5415L231.695 25.5732C231.447 25.8848 231.163 26.1696 230.84 26.4275C230.518 26.6854 230.169 26.9057 229.792 27.0884C229.416 27.2711 229.013 27.4108 228.583 27.5075C228.164 27.615 227.74 27.6687 227.31 27.6687C226.472 27.6687 225.693 27.5236 224.973 27.2335C224.263 26.9433 223.646 26.5404 223.119 26.0245C222.603 25.5087 222.195 24.8962 221.894 24.1869C221.604 23.4777 221.459 22.7039 221.459 21.8657Z" fill="white"/>
<path d="M243.388 22.1881H237.101V27.5075H235.49V16.2239H237.101V20.6567H243.388V16.2239H245V27.5075H243.388V22.1881Z" fill="white"/>
</svg>

<svg width="251" height="41" fill="none" xmlns="http://www.w3.org/2000/svg"><path d="M10.32 20.657v1.531H6.611v5.32H5V16.224h6.448v1.531H6.612v2.902h3.707zm9.425 7.012a4.897 4.897 0 01-1.95-.387 4.707 4.707 0 01-1.547-1.096 4.542 4.542 0 01-.87-1.403c-.205-.537-.307-1.187-.307-1.95v-6.61h1.612v6.69c0 .538.059.984.177 1.338.13.344.306.64.532.887.28.312.618.559 1.016.741.408.172.854.258 1.337.258.484 0 .925-.086 1.322-.258.409-.182.753-.43 1.032-.741.226-.247.398-.543.516-.887.129-.354.193-.8.193-1.338v-6.69h1.612v6.61c0 .763-.107 1.413-.322 1.95a4.313 4.313 0 01-.854 1.403c-.43.462-.946.827-1.548 1.096a4.897 4.897 0 01-1.95.387zm11.046-8.447v8.285H29.18V16.224h1.129l6.77 8.285v-8.285h1.612v11.284H37.56l-6.77-8.286zm20.706 2.644c0-.634-.123-1.225-.37-1.773a3.83 3.83 0 00-1-1.387 3.569 3.569 0 00-1.29-.709c-.494-.161-1.139-.242-1.934-.242h-1.692v8.221h1.692c.795 0 1.44-.08 1.934-.242a3.569 3.569 0 001.29-.709 3.83 3.83 0 001-1.386c.246-.548.37-1.14.37-1.773zM43.6 27.508V16.224h3.385c.902 0 1.655.091 2.256.274.613.183 1.15.446 1.612.79a5.417 5.417 0 011.645 1.966 5.64 5.64 0 01.612 2.612c0 .945-.199 1.816-.596 2.611a5.418 5.418 0 01-1.645 1.967 5.132 5.132 0 01-1.611.79c-.613.182-1.37.273-2.273.273H43.6zm19.775-2.902h-4.756l-1.176 2.901h-1.677l4.675-11.283h1.128l4.675 11.284h-1.677l-1.192-2.902zm-4.11-1.531h3.481l-1.74-4.191-1.742 4.19zm9.641-1.209c0-.817.145-1.575.435-2.273a5.65 5.65 0 011.193-1.838 5.7 5.7 0 011.806-1.241 5.683 5.683 0 012.272-.451 5.7 5.7 0 012.29.467c.73.301 1.343.726 1.837 1.274l-1.08 1.064c-.333-.366-.774-.667-1.322-.903a4.077 4.077 0 00-1.725-.371 3.999 3.999 0 00-2.917 1.225 4.192 4.192 0 00-.87 1.354 4.56 4.56 0 00-.307 1.693c0 .634.108 1.214.323 1.74.214.527.51.978.886 1.355a4.07 4.07 0 001.354.87 4.513 4.513 0 001.676.306c.377 0 .726-.048 1.048-.145a4.286 4.286 0 001.628-.87c.215-.194.403-.387.564-.58l1.145 1.031a5.355 5.355 0 01-.854.854 5.537 5.537 0 01-2.257 1.08 5.09 5.09 0 01-1.273.162 6.196 6.196 0 01-2.338-.436 5.706 5.706 0 01-1.854-1.209 5.734 5.734 0 01-1.225-1.837 6.071 6.071 0 01-.435-2.321zm14.031-5.642h1.612v11.284h-1.612V16.224zm5.646 5.642c0-.817.145-1.58.435-2.29a5.655 5.655 0 011.193-1.837 5.312 5.312 0 011.79-1.225 5.499 5.499 0 012.224-.451c.795 0 1.537.15 2.225.451.687.29 1.284.699 1.789 1.225a5.653 5.653 0 011.193 1.838c.29.709.435 1.472.435 2.289 0 .827-.145 1.596-.435 2.305a5.891 5.891 0 01-1.193 1.837 5.64 5.64 0 01-1.79 1.226 5.662 5.662 0 01-2.224.435 5.664 5.664 0 01-2.224-.436 5.64 5.64 0 01-1.79-1.225 5.893 5.893 0 01-1.193-1.837 6.03 6.03 0 01-.435-2.305zm1.612 0c0 .612.102 1.182.306 1.708.205.516.484.967.839 1.354.365.377.79.672 1.273.887a3.999 3.999 0 001.612.322c.58 0 1.112-.107 1.596-.322.494-.215.919-.51 1.273-.887.366-.387.65-.838.855-1.354a4.686 4.686 0 00.306-1.708c0-.613-.102-1.177-.306-1.693a3.982 3.982 0 00-.855-1.354 3.717 3.717 0 00-1.273-.903 3.886 3.886 0 00-1.596-.322c-.58 0-1.118.107-1.612.322a3.934 3.934 0 00-1.273.903 4.119 4.119 0 00-.839 1.354 4.56 4.56 0 00-.306 1.693zm3.466-6.448L94.709 13H96.4l-1.692 2.418H93.66zm11.84 3.804v8.285h-1.612V16.224h1.129l6.77 8.285v-8.285h1.612v11.284h-1.129l-6.77-8.286zm19.151 6.013c.129.28.322.5.58.66.269.162.575.242.919.242.247 0 .484-.059.709-.177.237-.118.425-.269.565-.451.096-.13.172-.285.225-.468.054-.193.081-.462.081-.806v-8.011h1.612v7.898c0 .452-.032.828-.097 1.129a2.99 2.99 0 01-.29.79 3.282 3.282 0 01-1.161 1.176 3.098 3.098 0 01-1.644.452 3.417 3.417 0 01-1.773-.468 2.864 2.864 0 01-1.161-1.354l1.435-.612zm13.959 2.434a4.899 4.899 0 01-1.951-.387 4.715 4.715 0 01-1.547-1.096 4.553 4.553 0 01-.871-1.403c-.204-.537-.306-1.187-.306-1.95v-6.61h1.612v6.69c0 .538.059.984.177 1.338.129.344.307.64.532.887.28.312.618.559 1.016.741a3.41 3.41 0 001.338.258 3.3 3.3 0 001.322-.258 3.02 3.02 0 001.031-.741c.226-.247.398-.543.516-.887.129-.354.194-.8.194-1.338v-6.69h1.612v6.61c0 .763-.108 1.413-.323 1.95a4.314 4.314 0 01-.854 1.403c-.43.462-.946.827-1.548 1.096a4.894 4.894 0 01-1.95.387zm15.672-3.063h-4.755l-1.177 2.901h-1.677l4.675-11.283h1.128l4.675 11.284h-1.676l-1.193-2.902zm-4.111-1.531h3.482l-1.741-4.191-1.741 4.19zm12.141-3.853v8.285h-1.612V16.224h1.128l6.77 8.285v-8.285h1.612v11.284h-1.128l-6.77-8.286zm25.212 5.868h-1.129l-3.304-5.175v7.593h-1.612V16.224h1.128l4.352 6.883 4.353-6.883h1.128v11.284h-1.612v-7.593l-3.304 5.175zm16.076-.484h-4.755l-1.177 2.901h-1.676l4.675-11.283h1.128l4.675 11.284h-1.677l-1.193-2.902zm-4.11-1.531h3.482l-1.741-4.191-1.741 4.19zm12.14-.887v5.32h-1.612V16.224h3.95c.516 0 .945.059 1.289.177.344.108.645.269.903.484.344.28.613.618.806 1.015.204.398.306.833.306 1.306 0 .473-.102.908-.306 1.306a2.958 2.958 0 01-.806 1.015 2.64 2.64 0 01-.596.37 3.04 3.04 0 01-.726.227l4.046 5.384h-1.95l-4.014-5.32h-1.29zm2.257-1.531c.366 0 .65-.038.855-.113.204-.075.37-.177.499-.306a1.4 1.4 0 00.419-1.032 1.38 1.38 0 00-.113-.564 1.409 1.409 0 00-.306-.468 1.357 1.357 0 00-.499-.306c-.205-.075-.489-.113-.855-.113h-2.257v2.902h2.257zm7.571 1.209c0-.817.145-1.575.435-2.273a5.65 5.65 0 011.193-1.838 5.698 5.698 0 011.805-1.241 5.685 5.685 0 012.273-.451 5.7 5.7 0 012.289.467 5.002 5.002 0 011.838 1.274l-1.08 1.064c-.334-.366-.774-.667-1.322-.903a4.082 4.082 0 00-1.725-.371 4 4 0 00-2.918 1.225 4.198 4.198 0 00-.87 1.354 4.562 4.562 0 00-.306 1.693c0 .634.107 1.214.322 1.74.215.527.51.978.887 1.355.386.376.838.666 1.354.87a4.508 4.508 0 001.676.306c.376 0 .725-.048 1.048-.145.333-.096.634-.22.902-.37a4.49 4.49 0 00.726-.5c.215-.194.403-.387.564-.58l1.145 1.031a5.523 5.523 0 01-3.112 1.934 5.1 5.1 0 01-1.273.162 6.195 6.195 0 01-2.337-.436 5.704 5.704 0 01-1.854-1.209 5.733 5.733 0 01-1.225-1.837 6.075 6.075 0 01-.435-2.321zm21.929.322h-6.287v5.32h-1.611V16.224h1.611v4.433h6.287v-4.433H245v11.284h-1.612v-5.32z" fill="#fff"/></svg>
